X: 27531
T: Mona's Isle Quickstep
R: jig
M: 6/8
K: Gmajor
|:D|B2G G2D|B2G G2D|GAB cde|BGD AFD|
B2G G2D|B2G G2D|GAB cde|cAF G2:|
|:G|B2B dBd|gfe dcB|A2A cAc|agf edc|
B2B dBd|gfe dcB|A2B cAF|G2B G2:|
|:G|e2c c2G|e2c c2G|cee cee|dec BAG|
e2c c2G|e2c c2G|ABc dec|d3 c2:|
|:D|B2G G2D|B2G G2D|GAB cde|BGD AFD|
B2G G2D|B2G G2D|GAB cde|cAF G2:|
|:G|B2B dBd|gfe dcB|A2A cAc|agf edc|
B2B dBd|gfe dcB|A2B cAF|G2B G2:|

